_site/images/features/icons/cloud-shield.svg

<svg height="33" viewBox="0 0 36 33" width="36" xmlns="http://www.w3.org/2000/svg"><path d="m29.3831579 7.55157895c-2.2472523-5.16380541-7.6642861-8.19312134-13.2403754-7.40428835-5.5760893.788833-9.94027535 5.20186939-10.66699303 10.7863936-3.07886075.7498994-5.29820858 3.4349495-5.4552179 6.5999267-.15700931 3.1649772 1.78569393 6.0564997 4.7752179 7.1074417.18559058.0571666.37844829.0873006.57263158.0894737.98829901.1581278 1.91766159-.5148589 2.07578943-1.5031579s-.51485884-1.9176616-1.50315785-2.0757895c-1.38079426-.4984333-2.31719242-1.7895277-2.36210526-3.2568421 0-1.976598 1.60234931-3.5789473 3.57894737-3.5789473.98829902 0 1.78947368-.8011747 1.78947368-1.7894737.00943941-4.3704546 3.17487318-8.09454639 7.48670848-8.80801555 4.3118354-.71346916 8.5081414 1.79249303 9.9248705 5.92696291.2084209.62656404.7449544 1.08743254 1.3957894 1.19894734 2.2035931.3988424 3.9281217 2.1236458 4.3266129 4.3273024.3984912 2.2036565-.6127776 4.4231792-2.5371392 5.5684871-.8598201.4941495-1.1562547 1.5917588-.6621052 2.4515789.4941495.8598202 1.5917588 1.1562548 2.4515789.6621053 2.7613687-1.6027941 4.4594038-4.5556021 4.4557895-7.748421-.0111704-3.9534405-2.6156413-7.43091847-6.4063158-8.55368425zm-6.4957895 7.94526315c-1.3721688.2984985-2.8064324-.0079123-3.9368421-.8410526-.6288564-.4595291-1.4827225-.4595291-2.1115789 0-1.1294282.8353191-2.5646787 1.1419408-3.9368421.8410526-.5293953-.1143198-1.0820823.0172723-1.5031579.3578947-.4156536.3371727-.658566.8426932-.6621053 1.3778948v6.0305263c-.0028254 2.6015575 1.2164573 5.053376 3.2926316 6.6210526l2.8094737 2.0578948c.6288564.4595291 1.4827225.4595291 2.1115789 0l2.8094737-2.0757895c2.0778055-1.5583446 3.2982732-4.0059129 3.2926316-6.6031579v-6.0305263c-.0035393-.5352016-.2464517-1.0407221-.6621053-1.3778948-.4210756-.3406224-.9737627-.4722145-1.5031579-.3578947zm-1.4136842 7.7663158c-.031897 1.4004032-.6882893 2.7131878-1.7894737 3.5789474l-1.7894737 1.288421-1.7894736-1.288421c-1.1011844-.8657596-1.7575767-2.1785442-1.7894737-3.5789474v-4.08c1.2515826-.0562382 2.4746008-.3925683 3.5789473-.9842105 1.1043465.5916422 2.3273648.9279723 3.5789474.9842105z" fill="#0b7a76"/></svg>

<?xml version="1.0" encoding="UTF-8"?>
<svg width="36px" height="33px" viewBox="0 0 36 33" version="1.1" xmlns="http://www.w3.org/2000/svg" xmlns:xlink="http://www.w3.org/1999/xlink">
    <!-- Generator: Sketch 52.6 (67491) - http://www.bohemiancoding.com/sketch -->
    <title>cloud-shield</title>
    <desc>Created with Sketch.</desc>
    <g id="Landing-page" stroke="none" stroke-width="1" fill="none" fill-rule="evenodd">
        <g id="1.3--Features" transform="translate(-973.000000, -2638.000000)" fill="#0B7A76" fill-rule="nonzero">
            <g id="Group-5" transform="translate(173.000000, 2637.000000)">
                <g id="cloud-shield" transform="translate(800.000000, 1.000000)">
                    <path d="M29.3831579,7.55157895 C27.1359056,2.38777354 21.7188718,-0.641542388 16.1427825,0.147290604 C10.5666932,0.936123595 6.20250715,5.34915999 5.47578947,10.9336842 C2.39692872,11.6835836 0.177580888,14.3686337 0.0205715742,17.5336109 C-0.136437739,20.6985881 1.8062655,23.5901106 4.79578947,24.6410526 C4.98138005,24.6982192 5.17423776,24.7283532 5.36842105,24.7305263 C6.35672006,24.8886541 7.28608264,24.2156674 7.44421048,23.2273684 C7.60233832,22.2390694 6.92935164,21.3097068 5.94105263,21.1515789 C4.56025837,20.6531456 3.62386021,19.3620512 3.57894737,17.8947368 C3.57894737,15.9181388 5.18129668,14.3157895 7.15789474,14.3157895 C8.14619376,14.3157895 8.94736842,13.5146148 8.94736842,12.5263158 C8.95680783,8.1558612 12.1222416,4.43176941 16.4340769,3.71830025 C20.7459123,3.00483109 24.9422183,5.51079328 26.3589474,9.64526316 C26.5673683,10.2718272 27.1039018,10.7326957 27.7547368,10.8442105 C29.9583299,11.2430529 31.6828585,12.9678563 32.0813497,15.1715129 C32.4798409,17.3751694 31.4685721,19.5946921 29.5442105,20.74 C28.6843904,21.2341495 28.3879558,22.3317588 28.8821053,23.1915789 C29.3762548,24.0513991 30.4738641,24.3478337 31.3336842,23.8536842 C34.0950529,22.2508901 35.793088,19.2980821 35.7894737,16.1052632 C35.7783033,12.1518227 33.1738324,8.67434473 29.3831579,7.55157895 Z M22.8873684,15.4968421 C21.5151996,15.7953406 20.080936,15.4889298 18.9505263,14.6557895 C18.3216699,14.1962604 17.4678038,14.1962604 16.8389474,14.6557895 C15.7095192,15.4911086 14.2742687,15.7977303 12.9021053,15.4968421 C12.37271,15.3825223 11.820023,15.5141144 11.3989474,15.8547368 C10.9832938,16.1919095 10.7403814,16.69743 10.7368421,17.2326316 L10.7368421,23.2631579 C10.7340167,25.8647154 11.9532994,28.3165339 14.0294737,29.8842105 L16.8389474,31.9421053 C17.4678038,32.4016344 18.3216699,32.4016344 18.9505263,31.9421053 L21.76,29.8663158 C23.8378055,28.3079712 25.0582732,25.8604029 25.0526316,23.2631579 L25.0526316,17.2326316 C25.0490923,16.69743 24.8061799,16.1919095 24.3905263,15.8547368 C23.9694507,15.5141144 23.4167636,15.3825223 22.8873684,15.4968421 Z M21.4736842,23.2631579 C21.4417872,24.6635611 20.7853949,25.9763457 19.6842105,26.8421053 L17.8947368,28.1305263 L16.1052632,26.8421053 C15.0040788,25.9763457 14.3476865,24.6635611 14.3157895,23.2631579 L14.3157895,19.1831579 C15.5673721,19.1269197 16.7903903,18.7905896 17.8947368,18.1989474 C18.9990833,18.7905896 20.2221016,19.1269197 21.4736842,19.1831579 L21.4736842,23.2631579 Z" id="Shape"></path>
                </g>
            </g>
        </g>
    </g>
</svg>
